X:4
T:Walzer DA&G (tinwhistle in D)
T:wz05998 (Hanny Christen)
%%MIDI program 72   % 111 /74 / 79=whistle
R:waltz
M:3/4
L:1/4
K:D transpose=3 %%MIDI gchordon
FA |: "D"d3 | "tr"dcd | ("A7"e3 | E)GA | e3 | "tr"ede | "D"f3 | zAd | f3 | 
"tr"fef | "G"a2g | B2^A | "A7"=Ag>A | f2e |1 "D"d3 | dFA :|2 ("D"d3 | d)zz || [K:A] 
|: "tr""E7"gd/2f/2"tr"e | B/2d/2cG/2B/2 | "A"A>ec | zeA | "E7"G>ed | zdG |1 "A"A>ec | zA/2c/2 e/2a/2 :|2 
"A"A>AA | AF"_>Part A"A [K:G] |: "G"B3 | Bc>G | "D7"B2F | A3 | (d3 | d)A>c | "C"c2G | 
"G"B2z | B3 | Bc>G | "D"A2F | d2z | "A7"aA>A | BAG | "D7"F>FF |1 FEF :|2 Fzz || 
|: "G"Bc/2d/2 e/2f/2 | g/2f/2ag | "D7"f>A A/2g/2 | f3 | "C"e>A c/2f/2 |1 e3 | "G"d>G B/2e/2 | d2z :|2 "D7"e2F | "G"G3 | gzz |] 
W:Parts: ABACD

